templates/flag_icons/ch 2.svg

<?xml version="1.0" encoding="UTF-8" standalone="no"?>
<svg width="23px" height="17px" viewBox="0 0 23 17" version="1.1" xmlns="http://www.w3.org/2000/svg" xmlns:xlink="http://www.w3.org/1999/xlink">
    <!-- Generator: Sketch 3.7.2 (28276) - http://www.bohemiancoding.com/sketch -->
    <title>CH2</title>
    <desc>Created with Sketch.</desc>
    <defs>
        <linearGradient x1="50%" y1="0%" x2="50%" y2="100%" id="linearGradient-1">
            <stop stop-color="#FFFFFF" offset="0%"></stop>
            <stop stop-color="#F0F0F0" offset="100%"></stop>
        </linearGradient>
        <rect id="path-2" x="0" y="0" width="17" height="15" rx="1.5"></rect>
        <filter x="-50%" y="-50%" width="200%" height="200%" filterUnits="objectBoundingBox" id="filter-4">
            <feOffset dx="0" dy="0.5" in="SourceAlpha" result="shadowOffsetOuter1"></feOffset>
            <feGaussianBlur stdDeviation="0.5" in="shadowOffsetOuter1" result="shadowBlurOuter1"></feGaussianBlur>
            <feColorMatrix values="0 0 0 0 0   0 0 0 0 0   0 0 0 0 0  0 0 0 0.16 0" type="matrix" in="shadowBlurOuter1"></feColorMatrix>
        </filter>
        <linearGradient x1="50%" y1="100%" x2="50%" y2="3.061617e-15%" id="linearGradient-5">
            <stop stop-color="#FF0000" offset="0%"></stop>
            <stop stop-color="#FF3131" offset="100%"></stop>
        </linearGradient>
        <rect id="path-6" x="0" y="0" width="17" height="15"></rect>
        <filter x="-50%" y="-50%" width="200%" height="200%" filterUnits="objectBoundingBox" id="filter-7">
            <feOffset dx="0" dy="0.5" in="SourceAlpha" result="shadowOffsetOuter1"></feOffset>
            <feGaussianBlur stdDeviation="0.5" in="shadowOffsetOuter1" result="shadowBlurOuter1"></feGaussianBlur>
            <feColorMatrix values="0 0 0 0 0   0 0 0 0 0   0 0 0 0 0  0 0 0 0.16 0" type="matrix" in="shadowBlurOuter1"></feColorMatrix>
        </filter>
        <path d="M7,9 L4.25577831,9 C4.11451585,9 4,8.88605976 4,8.74422169 L4,6.25577831 C4,6.11451585 4.11394024,6 4.25577831,6 L7,6 L7,3.25577831 C7,3.11451585 7.11394024,3 7.25577831,3 L9.74422169,3 C9.88548415,3 10,3.11394024 10,3.25577831 L10,6 L12.7442217,6 C12.8854841,6 13,6.11394024 13,6.25577831 L13,8.74422169 C13,8.88548415 12.8860598,9 12.7442217,9 L10,9 L10,11.7442217 C10,11.8854841 9.88605976,12 9.74422169,12 L7.25577831,12 C7.11451585,12 7,11.8860598 7,11.7442217 L7,9 Z" id="path-8"></path>
        <filter x="-50%" y="-50%" width="200%" height="200%" filterUnits="objectBoundingBox" id="filter-9">
            <feOffset dx="0" dy="0.5" in="SourceAlpha" result="shadowOffsetOuter1"></feOffset>
            <feColorMatrix values="0 0 0 0 0   0 0 0 0 0   0 0 0 0 0  0 0 0 0.06 0" type="matrix" in="shadowOffsetOuter1"></feColorMatrix>
        </filter>
    </defs>
    <g id="Flag-Kit" stroke="none" stroke-width="1" fill="none" fill-rule="evenodd">
        <g id="CH2">
            <g id="SUI" transform="translate(3.000000, 1.000000)">
                <mask id="mask-3" fill="white">
                    <use xlink:href="#path-2"></use>
                </mask>
                <g id="Mask">
                    <use fill="black" fill-opacity="1" filter="url(#filter-4)" xlink:href="#path-2"></use>
                    <use fill="url(#linearGradient-1)" fill-rule="evenodd" xlink:href="#path-2"></use>
                </g>
                <g id="Mask-Copy" mask="url(#mask-3)">
                    <use fill="black" fill-opacity="1" filter="url(#filter-7)" xlink:href="#path-6"></use>
                    <use fill="url(#linearGradient-5)" fill-rule="evenodd" xlink:href="#path-6"></use>
                </g>
                <g id="Rectangle-78" mask="url(#mask-3)">
                    <use fill="black" fill-opacity="1" filter="url(#filter-9)" xlink:href="#path-8"></use>
                    <use fill="url(#linearGradient-1)" fill-rule="evenodd" xlink:href="#path-8"></use>
                </g>
                <rect id="Depth" mask="url(#mask-3)" x="0" y="0" width="17" height="15" rx="1.5"></rect>
            </g>
        </g>
    </g>
</svg>

<svg width="23" height="17" viewBox="0 0 23 17" xmlns="http://www.w3.org/2000/svg" xmlns:xlink="http://www.w3.org/1999/xlink"><title>CH2</title><defs><linearGradient x1="50%" y1="0%" x2="50%" y2="100%" id="c"><stop stop-color="#FFF" offset="0%"/><stop stop-color="#F0F0F0" offset="100%"/></linearGradient><rect id="a" width="17" height="15" rx="1.5"/><filter x="-50%" y="-50%" width="200%" height="200%" filterUnits="objectBoundingBox" id="b"><feOffset dy=".5" in="SourceAlpha" result="shadowOffsetOuter1"/><feGaussianBlur stdDeviation=".5" in="shadowOffsetOuter1" result="shadowBlurOuter1"/><feColorMatrix values="0 0 0 0 0 0 0 0 0 0 0 0 0 0 0 0 0 0 0.16 0" in="shadowBlurOuter1"/></filter><linearGradient x1="50%" y1="100%" x2="50%" y2="0%" id="g"><stop stop-color="#F00" offset="0%"/><stop stop-color="#FF3131" offset="100%"/></linearGradient><path id="f" d="M0 0h17v15H0z"/><filter x="-50%" y="-50%" width="200%" height="200%" filterUnits="objectBoundingBox" id="e"><feOffset dy=".5" in="SourceAlpha" result="shadowOffsetOuter1"/><feGaussianBlur stdDeviation=".5" in="shadowOffsetOuter1" result="shadowBlurOuter1"/><feColorMatrix values="0 0 0 0 0 0 0 0 0 0 0 0 0 0 0 0 0 0 0.16 0" in="shadowBlurOuter1"/></filter><path d="M7 9H4.26A.26.26 0 0 1 4 8.74V6.26c0-.15.11-.26.26-.26H7V3.26c0-.15.11-.26.26-.26h2.48c.15 0 .26.11.26.26V6h2.74c.15 0 .26.11.26.26v2.48c0 .15-.11.26-.26.26H10v2.74c0 .15-.11.26-.26.26H7.26a.26.26 0 0 1-.26-.26V9z" id="i"/><filter x="-50%" y="-50%" width="200%" height="200%" filterUnits="objectBoundingBox" id="h"><feOffset dy=".5" in="SourceAlpha" result="shadowOffsetOuter1"/><feColorMatrix values="0 0 0 0 0 0 0 0 0 0 0 0 0 0 0 0 0 0 0.06 0" in="shadowOffsetOuter1"/></filter></defs><g transform="translate(3 1)" fill="none" fill-rule="evenodd"><mask id="d" fill="#fff"><use xlink:href="#a"/></mask><use fill="#000" filter="url(#b)" xlink:href="#a"/><use fill="url(#c)" xlink:href="#a"/><g mask="url(#d)"><use fill="#000" filter="url(#e)" xlink:href="#f"/><use fill="url(#g)" xlink:href="#f"/></g><g mask="url(#d)"><use fill="#000" filter="url(#h)" xlink:href="#i"/><use fill="url(#c)" xlink:href="#i"/></g><rect mask="url(#d)" width="17" height="15" rx="1.5"/></g></svg>
